source/img/mishka-logo-tablet.svg

<svg width="114" height="46" viewBox="0 0 114 46" fill="none" xmlns="http://www.w3.org/2000/svg">
<path d="M110.889 41.8087C115.312 42.7068 111.693 5.98661 110.989 3.59182C108.979 -2.99387 84.1469 1.49637 78.6176 1.8955C65.8498 2.89333 53.283 0.897673 40.8169 1.49637C34.5838 1.79572 5.73056 -0.299724 3.11668 3.49203C-1.91001 10.6764 0.402269 29.2361 1.80974 38.5159C-2.21161 39.3142 4.12202 42.7068 4.92629 43.4053C11.2599 45.6005 21.4138 43.2057 28.0491 43.8044C43.5313 45.3011 60.0188 41.6092 75.6015 42.8066C80.1256 43.9042 85.2528 43.8044 89.8773 44.004C93.396 49.5918 109.682 41.6092 110.889 41.8087C110.788 41.8087 111.392 41.9085 110.889 41.8087Z" fill="black"/>
<path d="M26.2395 24.3475C26.139 21.853 25.7368 19.2586 25.7368 16.764C25.7368 14.6686 26.139 12.5731 25.4352 10.5775C25.4352 10.3779 25.5358 10.1783 25.5358 9.879C25.7368 8.88117 22.4192 9.38008 21.9165 10.2781C21.6149 10.5775 21.4139 10.8768 21.5144 11.1762C21.5144 11.276 21.6149 11.3757 21.6149 11.3757C21.0117 14.3692 20.1069 17.3627 19.1016 20.2564C18.6995 21.3541 18.2973 22.4517 17.8952 23.6491C17.292 22.6512 16.7893 21.5536 16.2866 20.456C14.9797 17.1632 13.7733 13.8703 12.1648 10.777C12.3658 9.2803 9.14875 9.47986 8.44501 10.777C7.64074 12.3736 7.74127 13.9701 8.04287 15.6664C8.34448 17.5623 8.34447 19.4582 8.44501 21.4538C8.44501 25.2456 8.74661 28.9376 8.84714 32.7293C8.54554 33.1285 8.44501 33.5276 8.74661 34.0265C8.94768 34.2261 9.04821 34.4256 9.24928 34.5254C10.1541 35.2239 12.5669 34.6252 12.5669 33.328C12.5669 29.4365 12.2653 25.5449 12.1648 21.6534C12.1648 21.2543 12.1648 20.8551 12.1648 20.5558C12.2653 20.6556 12.2653 20.8551 12.3658 20.9549C12.969 22.4517 13.5722 23.9484 14.477 25.3454C15.2813 26.7423 15.6834 28.2391 16.1861 29.7358C15.985 29.9354 15.8845 30.135 15.985 30.4343C15.985 30.6339 16.0856 30.7337 16.1861 30.7337C16.7893 31.2326 17.8952 31.033 18.5989 30.7337C18.9005 30.6339 19.1016 30.5341 19.4032 30.3345C19.7048 30.135 20.2075 29.7358 20.1069 29.2369C20.1069 29.1371 20.0064 29.0373 20.0064 28.9376C20.4085 27.7402 20.7101 26.443 20.9112 25.2456C21.2128 23.8486 21.6149 22.6512 22.1176 21.3541C22.1176 21.9528 22.2181 22.5514 22.2181 23.1501C22.4192 25.5449 22.2181 27.9397 22.2181 30.3345C22.2181 31.1328 22.3187 31.8313 22.4192 32.6295C22.5197 32.9289 22.7208 34.3259 22.7208 34.4256C22.1176 34.9246 22.3187 35.623 23.1229 35.8226C24.0277 36.0222 25.1336 35.7228 25.7368 35.1241C26.8427 34.1263 26.34 32.43 26.0384 31.1328C25.7368 29.1371 26.34 26.6426 26.2395 24.3475Z" fill="white"/>
<path d="M34.1817 25.046C34.0811 23.1501 33.4779 21.3541 33.4779 19.4582C33.4779 17.2629 33.679 15.0677 33.3774 12.9723C33.2769 12.2738 29.5571 13.0721 29.6576 13.9701C29.9592 15.9658 29.8587 17.9614 29.8587 19.9571C29.8587 21.853 30.2608 23.6491 30.5624 25.5449C30.864 27.5406 30.4619 29.4365 30.663 31.4321C30.7635 32.3302 31.3667 34.0265 30.7635 34.8248C30.3614 35.3237 32.171 35.1241 32.2715 35.1241C32.9753 35.0243 33.9806 34.725 34.4833 34.1263C35.0865 33.328 34.6843 31.8313 34.5838 30.9332C34.0811 29.0373 34.2822 26.9419 34.1817 25.046Z" fill="white"/>
<path d="M49.7644 21.853C47.7537 19.2586 44.1345 21.1545 41.6212 20.3562C40.3142 19.9571 40.3142 18.161 40.3142 17.1632C40.3142 15.7662 40.2137 14.5688 40.0126 13.2716C39.9121 12.2738 40.0126 11.276 40.7164 10.4777C40.8169 10.3779 41.5206 10.1783 41.5206 10.1783C41.8222 10.0786 42.1238 10.0786 42.526 10.0786C44.034 9.97878 46.9494 10.2781 46.3462 12.4734C46.0446 13.4712 49.7644 12.8725 50.066 11.8747C51.2724 7.4842 43.1292 8.38225 40.8169 8.98095C38.7057 9.57965 36.3934 10.777 36.2929 13.1718C36.1923 14.3692 36.5945 15.4669 36.5945 16.5645C36.695 17.8616 36.3934 19.1588 36.8961 20.456C37.9014 23.2499 42.1238 21.9528 44.3356 22.1523C47.9548 22.4517 46.9495 27.341 46.9495 29.636C46.9495 30.8334 48.0553 32.9289 47.1505 33.9267C46.5473 34.5254 45.2404 34.6252 44.5366 34.6252C43.7324 34.725 42.4254 34.9246 41.9228 34.2261C41.018 32.9289 42.0233 30.6339 41.8222 29.1371C41.7217 28.2391 37.9014 29.0373 38.1025 30.135C38.4041 32.6295 36.7955 35.9224 40.4148 36.4213C42.727 36.7206 45.3409 36.2217 47.5527 35.5232C48.6585 35.1241 49.7644 34.6252 50.6692 33.8269C51.6745 32.9289 51.3729 31.6317 51.0713 30.4343C50.2671 27.4408 51.574 24.2478 49.7644 21.853Z" fill="white"/>
<path d="M66.3525 21.6534C66.252 18.0612 65.6488 14.5688 65.6488 10.9766C65.6488 9.08073 61.8285 9.77921 61.8285 11.276C61.8285 14.6686 62.3311 18.0612 62.4317 21.4538C62.4317 21.5536 62.4317 21.5536 62.4317 21.6534C60.6221 21.6534 58.7119 21.853 56.8018 21.853C57.0028 17.4625 56.1986 13.0721 56.3996 8.78138C56.3996 8.18268 52.6799 8.6816 52.6799 9.77921C52.4788 13.9701 53.2831 18.2608 53.082 22.4517C52.9815 24.4473 52.881 26.443 52.881 28.5384C52.881 29.5363 53.082 30.6339 53.1826 31.6317C53.2831 32.5298 53.6852 33.8269 53.3836 34.725C53.1826 35.4235 56.8018 35.0243 57.1034 34.0265C57.606 32.3302 56.9023 30.2347 56.7012 28.5384C56.5002 26.9419 56.7012 25.2456 56.8018 23.5493C58.7119 23.4495 60.7226 23.2499 62.6327 23.5493C62.7333 24.8465 62.8338 26.1436 62.9343 27.4408C63.0349 28.5384 63.1354 29.636 63.1354 30.7337C63.1354 31.7315 63.2359 33.1285 62.9343 34.0265C62.2306 36.0222 65.9503 35.8226 66.453 34.3259C67.1568 32.5298 66.9557 30.3345 66.8552 28.5384C66.7546 26.3432 66.3525 23.9484 66.3525 21.6534Z" fill="white"/>
<path d="M82.4378 25.9441C81.533 23.3497 80.1256 21.0547 79.0197 18.5601C80.025 16.6642 80.9298 14.8682 81.8346 12.9723C82.6389 11.276 83.2421 9.38008 84.7501 8.18269C85.2528 7.78355 85.2528 7.38442 84.5491 7.28464C83.7448 7.18485 82.5384 7.4842 81.9352 7.98312C80.5277 9.08073 79.6229 10.3779 78.9192 12.0742C78.0144 13.9701 77.1096 15.9658 76.1042 17.8616C76.0037 17.9614 76.0037 18.161 75.9032 18.2608C75.4005 18.5601 75.1994 18.9593 75.3 19.4582C74.4957 20.9549 73.7919 22.4517 72.8871 23.8486C72.5855 18.5601 71.9823 13.3714 71.7813 8.0829C71.7813 6.88551 67.961 7.58399 68.0615 9.08073C68.2626 15.5666 69.2679 22.0525 69.2679 28.5384C68.9663 28.8378 69.0669 29.0374 69.3685 29.1371C69.3685 30.8334 69.2679 32.43 69.1674 34.1263C68.7653 34.8248 69.5695 35.2239 70.1727 35.2239H70.2733C70.977 35.2239 72.7866 34.9246 72.8871 33.9267C73.0882 31.9311 73.0882 29.9354 73.0882 27.9397C74.5962 26.3432 75.8026 24.5471 76.9085 22.6512C77.6122 24.0482 78.316 25.4452 78.8186 26.9419C79.6229 29.5363 81.0304 31.9311 81.8346 34.5254C82.3373 36.2217 86.0571 35.2239 85.5544 33.5276C84.6496 30.9332 83.3427 28.5384 82.4378 25.9441Z" fill="white"/>
<path d="M104.857 21.5536C104.656 20.7554 103.55 20.7554 102.645 20.8551C102.645 20.5558 102.645 20.2564 102.645 19.8573C102.545 17.3627 102.444 14.7684 102.243 12.2738C102.042 9.97878 100.735 9.08073 98.4228 9.18052C96.1105 9.2803 93.3961 9.67943 91.2849 10.4777C88.7716 11.4755 87.3641 13.2716 86.962 15.866C86.4593 18.7597 87.163 21.7532 87.3641 24.6469C87.4646 27.9397 87.4646 31.3324 87.4646 34.6252C87.4646 35.1241 91.1844 34.6252 91.1844 33.6274C91.1844 31.033 91.1844 28.3389 91.1844 25.7445C91.1844 24.9462 91.1844 24.2478 91.0839 23.4495C92.3908 22.8508 94.6025 23.4495 95.9095 23.5493C97.0153 23.6491 98.0207 23.3497 99.026 23.2499C99.026 25.4452 99.1266 27.6404 99.2271 29.8356C99.2271 30.9332 99.7298 33.2282 98.9255 34.1263C98.5234 34.6252 100.333 34.4256 100.433 34.4256C101.238 34.3259 102.143 34.0265 102.645 33.4278C103.55 32.3302 103.047 29.8356 103.047 28.5384C102.947 26.7423 102.947 24.9462 102.947 23.1501C103.852 23.0504 105.058 22.3519 104.857 21.5536ZM90.9833 21.3541C90.8828 20.1567 90.7823 18.9593 90.6817 17.7619C90.4807 15.5666 90.7823 12.4734 92.8935 11.1762C93.4967 10.777 94.502 10.8768 95.1052 10.777C96.01 10.5775 97.0153 10.3779 97.8196 10.9766C98.9255 11.7749 98.7244 14.469 98.7244 15.5666C98.7244 17.4625 98.9255 19.3584 99.026 21.2543C98.5234 21.3541 97.9202 21.3541 97.4175 21.3541C95.2057 21.2543 92.994 20.9549 90.9833 21.3541Z" fill="white"/>
<path d="M30.9646 10.3779C31.4673 10.3779 31.9699 10.1783 32.3721 9.879C32.4726 9.77921 32.5731 9.77922 32.5731 9.67943C33.0758 9.38008 33.4779 8.88117 33.2769 8.38225C32.7742 7.38442 32.8747 6.28681 32.8747 5.18919C32.8747 4.29115 31.9699 3.9918 31.1657 4.09158C30.4619 4.19136 29.0545 4.69028 29.0545 5.48854C29.0545 6.38659 28.9539 7.38442 29.155 8.28247C29.155 8.38225 29.0545 8.48204 29.0545 8.58182C28.9539 8.78138 29.0545 8.98095 29.155 9.18052V9.2803C29.155 9.38008 29.155 9.47987 29.155 9.57965C29.2555 9.77922 29.3561 9.97878 29.5571 10.0786C30.0598 10.3779 30.5625 10.3779 30.9646 10.3779Z" fill="white"/>
</svg>

<svg viewBox="0 0 114 46" fill="none" xmlns="http://www.w3.org/2000/svg"><path d="M110.889 41.809c4.423.898.804-35.822.1-38.217-2.01-6.586-26.842-2.096-32.371-1.697-12.768.998-25.335-.997-37.801-.399-6.233.3-35.086-1.796-37.7 1.996C-1.91 10.676.402 29.236 1.81 38.516c-4.022.798 2.312 4.19 3.116 4.89 6.334 2.194 16.488-.2 23.123.398 15.482 1.497 31.97-2.195 47.553-.997 4.524 1.097 9.65.997 14.275 1.197 3.519 5.588 19.805-2.395 21.012-2.195-.101 0 .503.1 0 0Z" fill="black"/><path d="M26.24 24.348c-.101-2.495-.503-5.09-.503-7.584 0-2.095.402-4.19-.302-6.186 0-.2.1-.4.1-.699.202-.998-3.116-.499-3.619.4-.301.299-.502.598-.402.897 0 .1.1.2.1.2-.602 2.993-1.507 5.987-2.512 8.88-.402 1.098-.805 2.196-1.207 3.393-.603-.998-1.106-2.095-1.608-3.193-1.307-3.293-2.514-6.586-4.122-9.679.2-1.497-3.016-1.297-3.72 0-.804 1.597-.704 3.193-.402 4.89.301 1.895.301 3.791.402 5.787 0 3.792.302 7.484.402 11.275-.301.4-.402.799-.1 1.297.2.2.301.4.502.5.905.698 3.318.1 3.318-1.198 0-3.892-.302-7.783-.402-11.675v-1.097c.1.1.1.3.2.399.604 1.497 1.207 2.993 2.112 4.39.804 1.397 1.206 2.894 1.71 4.39-.202.2-.303.4-.202.7 0 .199.1.299.201.299.603.499 1.71.299 2.413 0 .302-.1.503-.2.804-.4.302-.199.805-.598.704-1.097 0-.1-.1-.2-.1-.3.401-1.197.703-2.494.904-3.691.302-1.397.704-2.595 1.207-3.892 0 .599.1 1.197.1 1.796.201 2.395 0 4.79 0 7.184 0 .799.1 1.497.201 2.296.1.299.302 1.696.302 1.796-.603.499-.402 1.197.402 1.397.905.2 2.01-.1 2.614-.699 1.106-.998.603-2.694.301-3.991-.301-1.996.302-4.49.201-6.785Z" fill="white"/><path d="M34.182 25.046c-.1-1.896-.704-3.692-.704-5.588 0-2.195.201-4.39-.1-6.486-.101-.698-3.82.1-3.72.998.301 1.996.2 3.991.2 5.987 0 1.896.403 3.692.704 5.588.302 1.996-.1 3.891.101 5.887.1.898.704 2.595.1 3.393-.402.499 1.408.3 1.509.3.703-.1 1.709-.4 2.211-.999.604-.798.201-2.295.1-3.193-.502-1.896-.3-3.991-.401-5.887Z" fill="white"/><path d="M49.764 21.853c-2.01-2.594-5.63-.699-8.143-1.497-1.307-.399-1.307-2.195-1.307-3.193 0-1.397-.1-2.594-.301-3.891-.1-.998 0-1.996.703-2.794.1-.1.805-.3.805-.3.301-.1.603-.1 1.005-.1 1.508-.1 4.423.2 3.82 2.395-.301.998 3.418.4 3.72-.598 1.206-4.39-6.937-3.493-9.25-2.894-2.11.599-4.423 1.796-4.523 4.19-.1 1.198.301 2.296.301 3.393.101 1.298-.2 2.595.302 3.892 1.005 2.794 5.228 1.497 7.44 1.696 3.619.3 2.614 5.189 2.614 7.484 0 1.197 1.105 3.293.2 4.29-.603.6-1.91.7-2.613.7-.805.099-2.112.299-2.614-.4-.905-1.297.1-3.592-.1-5.089-.101-.898-3.922-.1-3.72.998.301 2.494-1.308 5.787 2.312 6.286 2.312.3 4.926-.2 7.138-.898 1.105-.399 2.211-.898 3.116-1.696 1.006-.898.704-2.195.402-3.393-.804-2.993.503-6.186-1.307-8.581Z" fill="white"/><path d="M66.353 21.653c-.101-3.592-.704-7.084-.704-10.676 0-1.896-3.82-1.198-3.82.299 0 3.393.502 6.785.603 10.178v.2c-1.81 0-3.72.199-5.63.199.2-4.39-.603-8.78-.402-13.072 0-.598-3.72-.1-3.72.998-.201 4.191.603 8.482.402 12.673-.1 1.995-.201 3.991-.201 6.086 0 .998.201 2.096.302 3.094.1.898.502 2.195.2 3.093-.2.698 3.419.3 3.72-.699.503-1.696-.2-3.791-.402-5.488-.2-1.596 0-3.292.1-4.989 1.91-.1 3.922-.3 5.832 0l.301 3.892c.1 1.097.201 2.195.201 3.293 0 .997.1 2.395-.2 3.292-.704 1.996 3.015 1.797 3.518.3.704-1.796.503-3.992.402-5.788-.1-2.195-.502-4.59-.502-6.885Z" fill="white"/><path d="M82.438 25.944c-.905-2.594-2.312-4.89-3.418-7.384a145.398 145.398 0 0 0 2.815-5.588c.804-1.696 1.407-3.592 2.915-4.79.503-.398.503-.798-.2-.897-.805-.1-2.012.2-2.615.698-1.407 1.098-2.312 2.395-3.016 4.091-.905 1.896-1.81 3.892-2.815 5.788-.1.1-.1.299-.2.399-.504.3-.705.698-.604 1.197-.804 1.497-1.508 2.994-2.413 4.39-.302-5.288-.905-10.477-1.106-15.765 0-1.197-3.82-.499-3.72.998.202 6.486 1.207 12.971 1.207 19.457-.302.3-.201.5.1.6 0 1.695-.1 3.292-.2 4.988-.403.699.401 1.098 1.005 1.098h.1c.704 0 2.514-.3 2.614-1.297.201-1.996.201-3.992.201-5.987 1.508-1.597 2.715-3.393 3.82-5.289.704 1.397 1.408 2.794 1.91 4.29.805 2.595 2.212 4.99 3.017 7.584.502 1.697 4.222.699 3.72-.997-.905-2.595-2.212-4.99-3.117-7.584Z" fill="white"/><path d="M104.857 21.554c-.201-.799-1.307-.799-2.212-.699v-.998c-.1-2.494-.201-5.089-.402-7.583-.201-2.295-1.508-3.193-3.82-3.093-2.313.1-5.027.498-7.138 1.297-2.513.998-3.92 2.794-4.323 5.388-.503 2.894.201 5.887.402 8.78.1 3.294.1 6.686.1 9.98 0 .498 3.72 0 3.72-.999v-7.883c0-.798 0-1.496-.1-2.294 1.307-.6 3.519 0 4.825.1 1.106.1 2.112-.2 3.117-.3 0 2.195.1 4.39.201 6.586 0 1.097.503 3.392-.302 4.29-.402.5 1.408.3 1.508.3.805-.1 1.71-.4 2.212-.998.905-1.098.402-3.592.402-4.89-.1-1.796-.1-3.592-.1-5.388.905-.1 2.111-.798 1.91-1.596Zm-13.874-.2-.301-3.592c-.201-2.195.1-5.289 2.212-6.586.603-.399 1.608-.3 2.211-.399.905-.2 1.91-.4 2.715.2 1.106.798.904 3.492.904 4.59 0 1.895.201 3.791.302 5.687-.503.1-1.106.1-1.608.1-2.212-.1-4.424-.4-6.435 0Z" fill="white"/><path d="M30.965 10.378c.502 0 1.005-.2 1.407-.499.1-.1.201-.1.201-.2.503-.299.905-.798.704-1.297-.503-.998-.402-2.095-.402-3.193 0-.898-.905-1.197-1.71-1.097-.703.1-2.11.598-2.11 1.397 0 .898-.101 1.895.1 2.793 0 .1-.1.2-.1.3-.101.2 0 .399.1.599v.399c.1.2.201.399.402.499.503.299 1.006.299 1.408.299Z" fill="white"/></svg>
